X:68
T:Goodby Eddy Street
C:Russ Barenburg
N:"Cowboy Calypso" Rounder 0111
L:1/8
Q:1/4=218
M:4/4
K:C
z6 de | ff d2 c2 A2 |: "F"FF Ac ff cA | FF Ac ff cA | "Bb"dd cd "Am"_BB AB | "Gm"GG FG "C"EF GE | 
"F"FF Ac ff cA | FF Ac ff cA | "Bb"dd cd "Am"_BB AB |1 G"C"D EC "F"F2 AB :|2 G"C"D EC "F"F2 ef | 
|: "C"gg fg ec de | cG Ac _Bc eg | "F"aa ga ff eg | ff ef cc ef | "C"gg fg ec de | 
cG Ac _Be ga | "F"gf ff fe ee |1 ed cd de ea :|2 f"F7"f ef cA Ac |] "Bb"_Ba2B ag ec | 
"F"Ag2A gf dA | "C"c_B AB ac eg | "F"f2 cA F4 | 


